brandFactory_export/1.Light/Añadir alarma_1Light.svg

<?xml version="1.0" encoding="UTF-8"?>
<svg width="24px" height="24px" viewBox="0 0 24 24" version="1.1" xmlns="http://www.w3.org/2000/svg" xmlns:xlink="http://www.w3.org/1999/xlink">
    <title>1.Light/Añadir alarma_1Light</title>
    <g id="Symbols" stroke="none" stroke-width="1" fill="none" fill-rule="evenodd">
        <g id="1.Light/Añadir-alarma_1Light" fill="#5CB615" fill-rule="nonzero">
            <path d="M4.16470588,19.0823529 L21.9596639,19.0823529 C19.9327731,16.5714286 20.1378151,12.8605042 20.1478992,12.6823529 L20.1478992,8.05714286 C20.1478992,5.7210084 19.4890756,3.92941176 18.1983193,2.72941176 C16.1344538,0.806722689 13.1226891,0.994957983 13.092437,0.994957983 L13.0621849,0.994957983 C13.0521008,0.994957983 13.0420168,1.00504202 13.0218487,0.994957983 C12.8336134,0.98487395 8.52436975,0.749579832 6.74285714,4.33277311 L6.91092437,4.33277311 C8.21176471,4.36302521 13.2705882,4.87394958 13.2705882,10.9815126 C13.2705882,17.1058824 8.21176471,17.5798319 6.94117647,17.5966387 C6.82352941,17.6067227 6.68571429,17.6067227 6.53781513,17.6067227 L6.33277311,17.6067227 C6.05714286,17.5966387 5.62352941,17.5663866 5.11260504,17.4789916 C4.85378151,18.0773109 4.52773109,18.6218487 4.16470588,19.0823529 Z M14.9310924,21.9394958 C15.4521008,21.3478992 15.5495798,20.5310924 15.5495798,20.0705882 L10.5613445,20.0705882 C10.5613445,20.5243697 10.6487395,21.3512605 11.1798319,21.9394958 C11.5932773,22.4033613 12.2218487,22.6386555 13.0487395,22.6386555 C13.8890756,22.6386555 14.5210084,22.4033613 14.9310924,21.9394958 L14.9310924,21.9394958 Z M0.98487395,10.9411765 C0.98487395,15.9932773 4.73613445,16.594958 6.34957983,16.6252101 L6.53781513,16.6252101 C6.67563025,16.6252101 6.80336134,16.6252101 6.9210084,16.6151261 C8.53445378,16.5848739 12.2857143,15.9865546 12.2857143,10.9815126 C12.2857143,5.98655462 8.51428571,5.35798319 6.8907563,5.31764706 C6.74285714,5.30756303 6.57478992,5.30756303 6.41008403,5.30756303 L6.29243697,5.30756303 C4.69579832,5.32773109 0.98487395,5.89915966 0.98487395,10.9411765 Z M23.4453782,19.1932773 C23.6033613,19.3277311 23.6638655,19.5495798 23.5932773,19.7445378 C23.5260504,19.9428571 23.3378151,20.0705882 23.1327731,20.0705882 L16.5378151,20.0705882 C16.5378151,20.6823529 16.410084,21.7647059 15.6705882,22.594958 C15.0588235,23.2739496 14.1848739,23.6268908 13.0521008,23.6268908 C11.9294118,23.6268908 11.0453782,23.2739496 10.4336134,22.594958 C9.70420168,21.7680672 9.57647059,20.6756303 9.57647059,20.0739496 L2.98151261,20.0739496 C2.7092437,20.0739496 2.4907563,19.8521008 2.4907563,19.5798319 C2.4907563,19.4319328 2.55798319,19.2907563 2.67563025,19.2 C3.26722689,18.7092437 3.75798319,18.0470588 4.13109244,17.2504202 C2.25546218,16.6521008 0,15.0756303 0,10.9411765 C0,5.54285714 3.81848739,4.53109244 5.65042017,4.36302521 C7.5092437,-0.137815126 12.6285714,-2.75821033e-16 13.0521008,0.0100840336 C13.3579832,-0.0100840336 16.5579832,-0.14789916 18.8705882,2.00672269 C20.3663866,3.40504202 21.1361345,5.43529412 21.1361345,8.05378151 L21.1361345,12.7092437 C21.1226891,12.7831933 20.897479,17.1058824 23.4453782,19.1932773 Z M10.4336134,10.9411765 C10.4336134,11.2168067 10.2184874,11.4319328 9.94285714,11.4319328 L7.12605042,11.4319328 L7.12605042,14.2588235 C7.12605042,14.5344538 6.90084034,14.7495798 6.63529412,14.7495798 C6.35966387,14.7495798 6.14453782,14.5344538 6.14453782,14.2588235 L6.14453782,11.4319328 L3.32773109,11.4319328 C3.06218487,11.4319328 2.83697479,11.2168067 2.83697479,10.9411765 C2.83697479,10.6722689 3.06218487,10.4504202 3.32773109,10.4504202 L6.14453782,10.4504202 L6.14453782,7.6605042 C6.14453782,7.38823529 6.36638655,7.1697479 6.63529412,7.1697479 C6.90084034,7.1697479 7.12605042,7.39495798 7.12605042,7.6605042 L7.12605042,10.4470588 L9.94285714,10.4470588 C10.2184874,10.4470588 10.4336134,10.6722689 10.4336134,10.9411765 L10.4336134,10.9411765 Z" id="Añadir-alarma_1Light"></path>
        </g>
    </g>
</svg>

<svg width="24" height="24" viewBox="0 0 24 24" xmlns="http://www.w3.org/2000/svg"><path d="M4.165 19.082H21.96c-2.027-2.51-1.822-6.221-1.812-6.4V8.057c0-2.336-.659-4.128-1.95-5.328C16.134.807 13.123.995 13.092.995h-.03c-.01 0-.02.01-.04 0-.188-.01-4.498-.245-6.28 3.338h.169c1.3.03 6.36.54 6.36 6.649 0 6.124-5.06 6.598-6.33 6.615-.117.01-.255.01-.403.01h-.205c-.276-.01-.71-.04-1.22-.128a7.26 7.26 0 01-.948 1.603zM14.93 21.94c.521-.591.619-1.408.619-1.868H10.56c0 .453.088 1.28.619 1.868.413.464 1.042.7 1.869.7.84 0 1.472-.236 1.882-.7zM.985 10.941c0 5.052 3.751 5.654 5.365 5.684h.188c.138 0 .265 0 .383-.01 1.613-.03 5.365-.628 5.365-5.633 0-4.995-3.772-5.624-5.395-5.664-.148-.01-.316-.01-.48-.01h-.119c-1.596.02-5.307.591-5.307 5.633zm22.46 8.252a.504.504 0 01.148.552.485.485 0 01-.46.326h-6.595c0 .611-.128 1.694-.867 2.524-.612.679-1.486 1.032-2.619 1.032-1.123 0-2.007-.353-2.618-1.032-.73-.827-.858-1.92-.858-2.521H2.982a.492.492 0 01-.306-.874c.591-.49 1.082-1.153 1.455-1.95C2.255 16.652 0 15.076 0 10.941c0-5.398 3.818-6.41 5.65-6.578C7.51-.137 12.63 0 13.052.01c.306-.02 3.506-.158 5.819 1.997 1.495 1.398 2.265 3.428 2.265 6.047v4.655c-.013.074-.239 4.397 2.31 6.484zm-13.011-8.252c0 .276-.216.49-.491.49H7.126v2.828a.491.491 0 01-.981 0v-2.827H3.328a.491.491 0 01-.491-.49c0-.27.225-.492.49-.492h2.818V7.66c0-.272.221-.49.49-.49.266 0 .491.225.491.49v2.787h2.817c.275 0 .49.225.49.494z" fill="#5CB615" fill-rule="nonzero"/></svg>
